Catalina-light/actions/16/archive.svg

<svg xmlns="http://www.w3.org/2000/svg" width="16" height="16" viewBox="0 0 16 16">
 <defs>
  <style id="current-color-scheme" type="text/css">
   .ColorScheme-Text { color:#5c616c; } .ColorScheme-Highlight { color:#5294e2; }
  </style>
 </defs>
 <path style="fill:currentColor" class="ColorScheme-Text" d="M 2.9101562 1.0351562 C 2.4118663 1.0778563 2.0728562 1.5150462 1.9726562 1.9726562 C 1.6809063 2.8641762 1.3807562 3.7660562 1.0976562 4.6601562 L 1.0039062 5.0351562 L 1.0039062 13.035156 C 1.0039062 13.589156 1.4499063 14.035156 2.0039062 14.035156 L 14.003906 14.035156 C 14.557906 14.035156 15.003906 13.589156 15.003906 13.035156 L 15.003906 5.0351562 L 14.878906 4.5664062 C 14.540676 3.5766762 14.236256 2.5486062 13.878906 1.5664062 C 13.664926 1.1282762 13.177006 0.98963625 12.722656 1.0351562 L 2.9101562 1.0351562 z M 3.7285156 3.0351562 L 12.261719 3.0351562 C 12.369759 3.3581662 12.48376 3.7029962 12.59375 4.0351562 L 3.4023438 4.0351562 C 3.5110937 3.7013862 3.6181656 3.3711062 3.7285156 3.0351562 z M 7.0039062 6.0351562 L 9.0039062 6.0351562 L 9.0039062 9.0351562 L 10.753906 9.0351562 L 8.0039062 12.035156 L 5.2539062 9.0351562 L 7.0039062 9.0351562 L 7.0039062 6.0351562 z"/>
</svg>

<svg width="16" height="16" viewBox="0 0 16 16" xmlns="http://www.w3.org/2000/svg">
<defs>
<style id="current-color-scheme" type="text/css">.ColorScheme-Text { color:#5c616c; } .ColorScheme-Highlight { color:#5294e2; }</style>
</defs>
<path class="ColorScheme-Text" d="m2.9102 1.0352c-0.49829 0.0427-0.8373 0.47989-0.9375 0.9375-0.29175 0.89152-0.5919 1.7934-0.875 2.6875l-0.09375 0.375v8c0 0.554 0.446 1 1 1h12c0.554 0 1-0.446 1-1v-8l-0.125-0.46875c-0.33823-0.98973-0.64265-2.0178-1-3-0.21398-0.43813-0.7019-0.57677-1.1562-0.53125h-9.8125zm0.81836 2h8.5332c0.10804 0.32301 0.22204 0.66784 0.33203 1h-9.1914c0.10875-0.33377 0.21582-0.66405 0.32617-1zm3.2754 3h2v3h1.75l-2.75 3-2.75-3h1.75v-3z" fill="currentColor"/>
</svg>
